X: 39837
T: Third Policeman, The
R: jig
M: 6/8
K: Amajor
aec ~f3|ecA ~B3|Acc cBA|def efg|
aec ~f3|ecA ~B3|Acc def|efg a3:|
cff aff|aff afd|cff aff|afc ~d3|
cff aff|aff afd|cee def|efg a3:|

